X: 25548
T: Marine, The
R: jig
M: 6/8
K: Dmajor
|:e|f2 a gfe|f2 d B2 A|AFA faf|e3 e2 d|
f2 a gfe|f2 d B2 A|AFA faf|1 d3 d2:|2 d3 dcd||
|:e3 efg|a3 a3|g2 g A2 A|g3 g2 e|
f2 a gfe|f2 d B2 A|AFA faf|1 d3 dcd:|2 d3 d2||

